X: 32261
T: Pick The Lock
R: slip jig
M: 9/8
K: Dmajor
|:F2A AFE EDB,|~A,3 A,B,C D2E|F2A AFE AFE|FAA Adc ~A3|
F2A AFE EDB,|~A,3 A,B,C DFA|ABd dBA AGF|EA,A F2E D2z:|
|:~A,3 DB,A, DB,A,|B,2D DB,A, EFD|A,2D DB,A, DB,A,|~E3 EFG AFD|
A,2D DB,A, DB,A,|B,2D DB,A, EFD|A,2D DB,A, DEF|ABA F2E D2z:|

